src/images/crypto-icon-svg/gnt.svg

<svg xmlns="http://www.w3.org/2000/svg" width="32" height="32" viewBox="0 0 32 32">
  <g fill="none" fill-rule="evenodd">
    <circle cx="16" cy="16" r="16" fill="#001D57"/>
    <path fill="#FFF" fill-rule="nonzero" d="M20.4989119,5.28784115 L21.7021315,6.49249787 L19.4248039,8.83254677 C19.9043462,9.56259201 20.1633663,10.4230522 20.1633663,11.3106606 C20.1633663,12.4996325 19.718474,13.6060011 18.9048957,14.4419515 C18.2975317,15.0785251 17.529661,15.4998636 16.6881188,15.6675973 L16.6881188,17.7066373 C17.520726,17.8752221 18.2889935,18.2985949 18.9014629,18.9279328 C19.718474,19.7674456 20.1633663,20.8738142 20.1633663,22.0627861 C20.1633663,23.251758 19.718474,24.3581266 18.9014629,25.1976395 C18.0850131,26.0365757 16.9897202,26.5 15.8316832,26.5 C14.6653971,26.5 13.5814931,26.0398021 12.7619034,25.1976395 C11.9480348,24.3613556 11.5,23.2433036 11.5,22.0627861 C11.5,20.8822687 11.9480348,19.7642166 12.7584706,18.9314951 C13.3658346,18.2949216 14.1337053,17.8735831 14.9752475,17.7058494 L14.9752475,15.6668094 C14.1426404,15.4982246 13.3743729,15.0748518 12.7619034,14.4455139 C11.9480348,13.6092301 11.5,12.491178 11.5,11.3106606 C11.5,10.1301431 11.9480348,9.01209106 12.7619034,8.17580719 C13.5783533,7.33687099 14.6736461,6.8734467 15.8316832,6.8734467 C16.6922695,6.8734467 17.5189371,7.13516612 18.2273102,7.62200639 L20.4989119,5.28784115 Z M15.8316832,19.3449967 C15.1199246,19.3449967 14.4642454,19.6219143 13.9750132,20.1355074 C13.4777513,20.6464646 13.2001414,21.3334069 13.2001414,22.0627861 C13.2001414,22.787982 13.4748835,23.4649472 13.9750132,23.9900649 C14.4696999,24.4983761 15.1310671,24.7805755 15.8316832,24.7805755 C16.5434417,24.7805755 17.1991209,24.503658 17.6883532,23.9900649 C18.185615,23.4791076 18.4632249,22.7921654 18.4632249,22.0627861 C18.4632249,21.3375903 18.1884828,20.6606251 17.6846269,20.1316371 C17.1991209,19.6219143 16.5434417,19.3449967 15.8316832,19.3449967 Z M17.6846269,13.25489 C18.185615,12.7400625 18.4632249,12.0531203 18.4632249,11.323741 C18.4632249,10.5829779 18.1907246,9.90172759 17.6883532,9.39646226 C17.1936664,8.88815101 16.5322993,8.6059516 15.8316832,8.6059516 C15.1199246,8.6059516 14.4642454,8.88286919 13.9750132,9.39646226 C13.4777513,9.9074195 13.2001414,10.5943618 13.2001414,11.323741 C13.2001414,12.0489368 13.4748835,12.725902 13.9750132,13.2510197 C14.4696999,13.759331 15.1310671,14.0415304 15.8316832,14.0415304 C16.5434417,14.0415304 17.1991209,13.7646128 17.6846269,13.25489 Z"/>
  </g>
</svg>

<svg xmlns="http://www.w3.org/2000/svg" width="32" height="32"><g fill="none" fill-rule="evenodd"><circle cx="16" cy="16" r="16" fill="#001D57"/><path fill="#FFF" fill-rule="nonzero" d="M20.499 5.288l1.203 1.204-2.277 2.34c.48.73.738 1.591.738 2.479a4.448 4.448 0 0 1-1.258 3.131 4.183 4.183 0 0 1-2.217 1.226v2.039c.833.168 1.601.592 2.213 1.22a4.451 4.451 0 0 1 1.262 3.136 4.451 4.451 0 0 1-1.262 3.135 4.262 4.262 0 0 1-3.07 1.302 4.24 4.24 0 0 1-3.07-1.302 4.474 4.474 0 0 1-1.261-3.135c0-1.18.448-2.299 1.258-3.132a4.183 4.183 0 0 1 2.217-1.225v-2.04a4.274 4.274 0 0 1-2.213-1.22A4.474 4.474 0 0 1 11.5 11.31c0-1.18.448-2.299 1.262-3.135a4.262 4.262 0 0 1 3.07-1.303c.86 0 1.687.262 2.395.749L20.5 5.288zm-4.667 14.057a2.53 2.53 0 0 0-1.857.79 2.751 2.751 0 0 0-.775 1.928c0 .725.275 1.402.775 1.927.495.508 1.156.79 1.857.79a2.53 2.53 0 0 0 1.856-.79 2.751 2.751 0 0 0 .775-1.927c0-.725-.275-1.402-.778-1.931a2.527 2.527 0 0 0-1.853-.787zm1.853-6.09a2.754 2.754 0 0 0 .778-1.931 2.7 2.7 0 0 0-.775-1.928 2.578 2.578 0 0 0-1.856-.79 2.53 2.53 0 0 0-1.857.79 2.751 2.751 0 0 0-.775 1.928c0 .725.275 1.402.775 1.927.495.508 1.156.79 1.857.79.711 0 1.367-.276 1.853-.786z"/></g></svg>
